X:895
T:Urquhart Castle
R:Strathspey
B:The Athole Collection
M:C
L:1/8
K:B_
A,|B,>C D<B F>B D<e|d>B A<B F<B D>C|B,>C D<B F>B D<d|
B<G A>^F G<G, G,>A,|B,>C D<B F>B D<e|d>B A<B F<B D>C|
B,>C D<B F>B D<d|B<G A>^F G<G,G,||f|e/d/c/B/ f>B g>Bf>c|
d<g g>a b>ag>f|dc/B/ f>B g>B f<b|f<d d>c d<gg<b|d<bc<a B<gA<f|
G<BA<B F<B D>C|B,>CD>E F<E D<d|B<G A>^F G<G,G,||

